X:1
T:Title
%%score { ( 1 4 ) | ( 2 3 ) }
L:1/8
M:6/8
K:Bb
V:1 treble nm="Grand Piano"
V:4 treble 
V:2 bass 
V:3 bass 
V:1
 z3 z2[Q:1/4=100] [DF] | [DF]2 [DF] [EG]2 [DF] | [Fd]2 [Ec] [DB]2 [DB] | A2 B c2 d | %4
 [EB]2 [EG] [DF]2 [EF] | [DF]2 [DF] [EG]2 [DF] | [Fd]2 [Ec] [DB]2 [DF] | [EG]2 [EA] [DB]2 [Gc] | %8
[M:5/8] deA [DB]2 |[M:1/8] F |[M:3/4] F3 G2 A | [DB]6[K:bass][K:treble] | G3 A2 B | c6 | %14
 e2 d c2 d |[M:7/8] B2 A G3 G |[M:3/4] F2 G A2 c |[M:5/8] [DB]-[DB]- [DB]3 |] %18
V:2
 z3 z2 [B,,B,] | [B,,B,]2 [B,,B,] [B,,B,]2 [B,,B,] | [B,,B,]2 [B,,B,] [B,,B,]2 [B,,B,] | %3
 [F,C]2 [F,B,D] [F,A,E]2 [F,A,F] | [B,,B,]2 [B,,B,] [B,,B,]2 [F,A,] | %5
 [B,,B,]2 [B,,B,] [B,,B,]2 [B,,B,] | [B,,B,]2 [B,,B,] [B,,B,]2 [B,,B,] | %7
 [E,B,]2 [C,F,] [B,,B,]2 [E,B,] |[M:5/8] B, z z z2 |[M:1/8] D |[M:3/4] D3 E2 E | %11
 [B,,F,]2 B,, B,,2[K:treble] F | E3 E2 D | F2- [F,F-] [F,F]2[K:bass] [F,B,F] | %14
 [F,CF]2 [F,B,F] [F,A,E]2 [F,A,F] |[M:7/8] [G,D]2 [D,^F,C] [E,G,B,]3 [E,B,E] | %16
[M:3/4] [F,B,D]2 [F,B,D] [F,CE]2 [F,A,E] |[M:5/8] [B,,B,]-[B,,B,]- [B,,B,]3 |] %18
V:3
 x6 | x6 | x6 | x6 | x6 | x6 | x6 | x6 |[M:5/8] [F,F]-[F,CF][F,E] [B,,F,]2 |[M:1/8] x |[M:3/4] x6 | %11
 x5[K:treble] x | x6 | [F,A,]2 z2 z2[K:bass] | x6 |[M:7/8] x7 |[M:3/4] x6 |[M:5/8] x5 |] %18
V:4
 x6 | x6 | x6 | x6 | x6 | x6 | x6 | x6 |[M:5/8] x5 |[M:1/8] x |[M:3/4] x6 | %11
 z2[K:bass] F, F,2[K:treble] A | x6 | z2 A, A,2 d | x6 |[M:7/8] x7 |[M:3/4] x6 |[M:5/8] x5 |] %18

